X: 1
T: Emma (Vals fr\aan Finland)
C: Trad.
R: waltz, song
S: http://www.nyckelharpa.org/archive/written-music/american-allspel-list/ 2022/9/21
Z: 2022 John Chambers <jc:trillian.mit.edu>
M: 3/4
L: 1/8
Q: 1/4=180
K: D
DF | A3 A A2 | F2 D2 DF | A3 A A2 | F2 D2 DF || E4 EF | G2 F2 E2 | "*)"D3 E FG | A4 |
DF | A3 A A2 | F2 D2 F2 | A3 A A2 | F2 D2 F2 || E4 EF | G2 F2 E2 | D3 E FE |[1 D4 :|[2 D2 ||
|: F2 A2 |\
d3 d d2 | d2 c2 B2 | A3 A A2 | A2 G2 F2 || E4 EF | G2 F2 E2 | D3 E FG | A4 ||
FA | d3 d d2 | d2 c2 B2 | A3 G AB | A2 G2 F2 || E4 EF | G2 F2 E2 | D3 E FE |[1 D2 :|2 D4 |]
%
P: *) Measures 7 and 8 are sometimes played:
| D4 D2 | A,4 |
